X: 35
T:Shepherds' Hey, Longborough
M:4/4
L:1/8
A:Longborough
P:A(AB)6A
K:G
P:A
B2d2 cBc2|B2d2 A4|Bcd2   cBc2|d2D2 G4||
P:B
B2G2 c3A |B2G2 A4|Bcd2{d}c2Bc|d2D2 G4||
